dist/assets/icons/icon-messenger.svg

<svg width="32" height="32" viewBox="0 0 32 32" fill="none" xmlns="http://www.w3.org/2000/svg">
<path fill-rule="evenodd" clip-rule="evenodd" d="M16 0C6.98592 0 0 6.6029 0 15.5205C0 20.1854 1.91227 24.216 5.02535 27.0007C5.28612 27.2358 5.44386 27.5609 5.45674 27.9118L5.54366 30.7577C5.57264 31.6656 6.50946 32.2547 7.34004 31.8909L10.5143 30.4905C10.7847 30.3714 11.0841 30.3489 11.3674 30.4261C12.8258 30.8286 14.3807 31.041 16 31.041C25.0141 31.041 32 24.4381 32 15.5205C32 6.6029 25.0141 0 16 0Z" fill="#FF3B3B"/>
<path fill-rule="evenodd" clip-rule="evenodd" d="M6.39273 20.2181L11.0933 12.7725C11.8403 11.5894 13.4437 11.2937 14.5641 12.1328L18.302 14.9329C18.6465 15.1901 19.1166 15.1869 19.4579 14.9297L24.5062 11.104C25.1791 10.5928 26.0613 11.3998 25.6073 12.1135L20.9099 19.5559C20.163 20.7389 18.5596 21.0347 17.4392 20.1956L13.7012 17.3955C13.3567 17.1383 12.8867 17.1415 12.5454 17.3987L7.49383 21.2276C6.82093 21.7387 5.93876 20.9318 6.39273 20.2181Z" fill="white"/>
</svg>

<svg width="32" height="32" fill="none" xmlns="http://www.w3.org/2000/svg"><path fill-rule="evenodd" clip-rule="evenodd" d="M16 0C6.986 0 0 6.603 0 15.52 0 20.186 1.912 24.216 5.025 27c.261.236.419.56.432.912l.087 2.846A1.282 1.282 0 007.34 31.89l3.174-1.4c.27-.12.57-.142.853-.065A17.4 17.4 0 0016 31.04c9.014 0 16-6.603 16-15.52S25.014 0 16 0z" fill="#FF3B3B"/><path fill-rule="evenodd" clip-rule="evenodd" d="M6.393 20.218l4.7-7.445a2.405 2.405 0 013.471-.64l3.738 2.8a.962.962 0 001.156-.003l5.048-3.826c.673-.511 1.555.296 1.101 1.01l-4.697 7.442a2.405 2.405 0 01-3.47.64l-3.739-2.8a.962.962 0 00-1.156.003l-5.051 3.829c-.673.51-1.555-.296-1.101-1.01z" fill="#fff"/></svg>
